www/assets/icons/folder_off.svg

<svg width="24" height="24" viewBox="0 0 24 24" xmlns="http://www.w3.org/2000/svg" fill='currentColor'><path d="M20.655 5.29502H12.655L10.655 3.29502H7.485L22.415 18.225C22.565 17.945 22.655 17.635 22.655 17.295V7.29502C22.655 6.19502 21.755 5.29502 20.655 5.29502Z"/><path d="M2.755 1.39502L1.345 2.80502L2.905 4.36502C2.755 4.64502 2.665 4.95502 2.665 5.29502L2.655 17.295C2.655 18.395 3.555 19.295 4.655 19.295H17.825L21.135 22.605L22.545 21.195L2.755 1.39502Z"/></svg>

<svg xmlns="http://www.w3.org/2000/svg" width="24" height="24" viewBox="0 0 24 24" fill='currentColor'><path d="M20.655 5.295h-8l-2-2h-3.17l14.93 14.93c.15-.28.24-.59.24-.93v-10c0-1.1-.9-2-2-2m-17.9-3.9-1.41 1.41 1.56 1.56c-.15.28-.24.59-.24.93l-.01 12c0 1.1.9 2 2 2h13.17l3.31 3.31 1.41-1.41z"/></svg>
